icons/sharepoint-light.svg

<svg width="256" height="256" viewBox="0 0 256 256" fill="none" xmlns="http://www.w3.org/2000/svg">
<path d="M196 0H60C26.8629 0 0 26.8629 0 60V196C0 229.137 26.8629 256 60 256H196C229.137 256 256 229.137 256 196V60C256 26.8629 229.137 0 196 0Z" fill="#F4F2ED"/>
<path d="M123.397 143.237C149.419 143.237 170.515 122.141 170.515 96.1186C170.515 70.0957 149.419 49 123.397 49C97.3754 49 76.2804 70.0957 76.2804 96.1186C76.2804 122.141 97.3754 143.237 123.397 143.237Z" fill="#036C70"/>
<path d="M167.416 177.963C189.683 177.963 207.733 159.912 207.733 137.645C207.733 115.377 189.683 97.3262 167.416 97.3262C145.15 97.3262 127.099 115.377 127.099 137.645C127.099 159.912 145.15 177.963 167.416 177.963Z" fill="#1A9BA1"/>
<path d="M128.347 207.698C146.146 207.698 160.576 193.268 160.576 175.468C160.576 157.667 146.146 143.237 128.347 143.237C110.547 143.237 96.1169 157.667 96.1169 175.468C96.1169 193.268 110.547 207.698 128.347 207.698Z" fill="#37C6D0"/>
<g opacity="0.67">
<path opacity="0.05" d="M130.882 87.266H81.4307C81.1084 87.2606 80.7882 87.3189 80.4884 87.4373C80.1885 87.5558 79.9149 87.7321 79.6833 87.9563C79.4516 88.1805 79.2664 88.4481 79.1382 88.7439C79.01 89.0397 78.9413 89.3579 78.936 89.6803V111.57C82.1405 120.766 88.118 128.742 96.0449 134.399C103.972 140.057 113.458 143.116 123.196 143.156C124.564 143.156 125.932 143.156 127.22 142.955V143.197C119.852 143.396 112.775 146.118 107.173 150.907C101.571 155.697 97.7814 162.264 96.439 169.512H130.64C133.336 169.512 135.549 164.08 135.549 158.125V92.2152C135.561 90.9471 135.082 89.7236 134.212 88.801C133.341 87.8784 132.148 87.3283 130.882 87.266Z" fill="black"/>
<path opacity="0.1" d="M121.748 100.263H76.6024C77.6292 111.986 83.0127 122.898 91.6907 130.847C100.369 138.795 111.71 143.201 123.478 143.197C124.886 143.197 126.254 143.197 127.502 142.996V143.237C119.028 143.448 110.979 146.993 105.103 153.103C99.2269 159.213 95.998 167.394 96.1171 175.87C96.1171 177.238 96.1171 178.566 96.439 179.894H121.748C122.619 179.937 123.49 179.806 124.31 179.508C125.13 179.21 125.883 178.752 126.523 178.16C127.164 177.568 127.68 176.854 128.042 176.06C128.403 175.266 128.603 174.408 128.628 173.536V106.661C128.576 104.925 127.841 103.279 126.583 102.081C125.325 100.884 123.645 100.23 121.909 100.263H121.748Z" fill="black"/>
<path opacity="0.2" d="M121.748 95.6758H76.3207V96.1184C76.3207 102.304 77.5397 108.429 79.9081 114.144C82.2764 119.858 85.7477 125.05 90.1234 129.422C94.4992 133.794 99.6936 137.261 105.41 139.625C111.126 141.988 117.252 143.202 123.438 143.197C124.806 143.197 126.174 143.197 127.461 142.996V143.237C119.05 143.426 111.048 146.901 105.167 152.918C99.286 158.934 95.9942 167.014 95.9964 175.427H121.627C123.349 175.449 125.01 174.788 126.246 173.589C127.482 172.391 128.194 170.751 128.226 169.029V102.074C128.194 100.373 127.499 98.7516 126.289 97.5562C125.079 96.3609 123.449 95.686 121.748 95.6758Z" fill="black"/>
<path opacity="0.1" d="M128.91 88.7949H79.4591C78.7975 88.7949 78.163 89.0578 77.6952 89.5256C77.2273 89.9935 76.9645 90.628 76.9645 91.2896V103.884C78.802 114.871 84.476 124.851 92.9777 132.049C101.479 139.247 112.258 143.197 123.397 143.197C124.766 143.197 126.134 143.197 127.421 142.995V143.237C119.793 143.432 112.482 146.33 106.793 151.416C101.103 156.501 97.4052 163.442 96.3585 171.001H128.829C129.478 171.001 130.119 170.873 130.717 170.623C131.316 170.374 131.859 170.009 132.315 169.549C132.771 169.089 133.132 168.543 133.376 167.943C133.621 167.342 133.744 166.7 133.738 166.052V93.8247C133.749 93.1747 133.631 92.529 133.393 91.9244C133.154 91.3199 132.798 90.7683 132.346 90.3013C131.894 89.8342 131.354 89.4608 130.758 89.2023C130.161 88.9438 129.52 88.8054 128.87 88.7949H128.91Z" fill="black"/>
<path opacity="0.1" d="M128.628 90.8477H79.3786C79.0563 90.8477 78.7372 90.9111 78.4394 91.0345C78.1416 91.1578 77.871 91.3386 77.6431 91.5666C77.4152 91.7945 77.2344 92.0651 77.111 92.3629C76.9877 92.6607 76.9242 92.9798 76.9242 93.3022V103.362C78.6439 114.451 84.2748 124.559 92.7984 131.858C101.322 139.157 112.176 143.165 123.397 143.157C124.766 143.157 126.134 143.157 127.421 142.956V143.197C119.554 143.376 112.025 146.431 106.258 151.784C100.49 157.137 96.8823 164.417 96.1171 172.249H128.628C129.941 172.249 131.2 171.727 132.128 170.799C133.056 169.871 133.577 168.612 133.577 167.3V95.8372C133.578 94.5277 133.063 93.2707 132.145 92.3372C131.226 91.4038 129.978 90.8688 128.668 90.8477H128.628Z" fill="black"/>
<path opacity="0.01" d="M77.6484 85.0127C75.9519 91.9422 75.8537 99.1668 77.3614 106.14C78.869 113.113 81.943 119.652 86.3507 125.261C90.7583 130.871 96.3843 135.404 102.803 138.518C109.221 141.633 116.263 143.246 123.397 143.237C124.765 143.237 126.133 143.237 127.421 143.036V143.277C121.856 143.412 116.42 144.988 111.646 147.851C106.871 150.715 102.921 154.767 100.181 159.614L118.006 157.481C120.702 157.481 128.065 155.107 128.065 152.371V90.0022C128.044 88.6854 127.512 87.4283 126.581 86.4971C125.649 85.5658 124.392 85.0334 123.075 85.0127H77.6484Z" fill="black"/>
<path opacity="0.2" d="M121.748 97.8887H76.3207C76.7786 110.058 81.9345 121.577 90.7053 130.025C99.4761 138.474 111.179 143.195 123.357 143.197C124.725 143.197 126.093 143.197 127.381 142.995V143.237C118.97 143.426 110.967 146.901 105.086 152.917C99.2055 158.934 95.9138 167.014 95.9159 175.427V177.56H121.426C122.282 177.592 123.136 177.455 123.939 177.157C124.743 176.859 125.479 176.406 126.107 175.823C126.735 175.24 127.242 174.538 127.598 173.759C127.955 172.98 128.155 172.139 128.186 171.283V104.166C128.124 102.493 127.421 100.908 126.222 99.7395C125.024 98.5709 123.422 97.9082 121.748 97.8887Z" fill="black"/>
<path opacity="0.3" d="M121.748 90.8877H76.6023C75.1999 103.283 78.7783 115.727 86.5503 125.484C94.3223 135.241 105.652 141.511 118.046 142.915C119.837 143.11 121.637 143.205 123.438 143.197C124.806 143.197 126.174 143.197 127.461 142.996V143.237C120.195 143.401 113.198 146.02 107.609 150.666C102.02 155.313 98.1685 161.714 96.6804 168.828H121.627C122.478 168.844 123.323 168.693 124.116 168.382C124.908 168.071 125.631 167.607 126.243 167.017C126.856 166.426 127.347 165.721 127.687 164.941C128.027 164.161 128.21 163.322 128.226 162.471V97.2855C128.194 95.5846 127.499 93.9634 126.289 92.7681C125.079 91.5727 123.449 90.8979 121.748 90.8877Z" fill="black"/>
<path opacity="0.3" d="M121.748 90.8877H76.6023C75.1999 103.283 78.7783 115.727 86.5503 125.484C94.3223 135.241 105.652 141.511 118.046 142.915C119.837 143.11 121.637 143.205 123.438 143.197C124.806 143.197 126.174 143.197 127.461 142.996V143.237C120.259 143.4 113.32 145.975 107.754 150.549C102.188 155.123 98.3169 161.432 96.7609 168.466H121.627C123.353 168.477 125.013 167.807 126.248 166.602C127.484 165.397 128.194 163.754 128.226 162.028V97.2855C128.194 95.5846 127.499 93.9634 126.289 92.7681C125.079 91.5727 123.449 90.8979 121.748 90.8877Z" fill="black"/>
<path opacity="0.3" d="M121.748 92.4971H76.6024V95.9174C76.5971 102.103 77.8109 108.229 80.1743 113.946C82.5378 119.662 86.0047 124.857 90.3767 129.233C94.7487 133.609 99.9402 137.08 105.654 139.448C111.369 141.817 117.494 143.036 123.679 143.036H127.703V143.277C119.905 143.454 112.437 146.457 106.687 151.726C100.937 156.996 97.295 164.174 96.4391 171.927H121.869C122.737 171.953 123.601 171.808 124.412 171.498C125.224 171.187 125.965 170.719 126.594 170.12C127.223 169.522 127.726 168.804 128.076 168.009C128.425 167.213 128.613 166.357 128.628 165.489V98.8949C128.613 98.0354 128.427 97.1875 128.082 96.4C127.738 95.6124 127.241 94.9008 126.62 94.3062C125.999 93.7115 125.267 93.2456 124.465 92.9351C123.664 92.6246 122.808 92.4758 121.949 92.4971H121.748Z" fill="black"/>
<path opacity="0.2" d="M121.748 93.9855H76.3207V96.1181C76.3207 108.604 81.2805 120.579 90.1092 129.407C98.9378 138.236 110.912 143.196 123.397 143.196C124.806 143.196 126.174 143.196 127.421 142.995V143.237C119.412 143.524 111.798 146.788 106.068 152.392C100.338 157.995 96.9047 165.535 96.439 173.536H121.949C123.675 173.557 125.34 172.898 126.582 171.7C127.825 170.503 128.546 168.863 128.588 167.138V100.383C128.572 99.5273 128.388 98.6827 128.046 97.8978C127.704 97.1129 127.21 96.4032 126.594 95.8091C125.977 95.215 125.25 94.7481 124.453 94.4353C123.656 94.1224 122.805 93.9695 121.949 93.9855H121.748Z" fill="black"/>
<path opacity="0.1" d="M128.025 93.0599H78.574C78.113 93.0528 77.6596 93.1778 77.2674 93.4203C76.8752 93.6627 76.5607 94.0124 76.361 94.4279V96.0375C76.361 108.523 81.3208 120.498 90.1494 129.327C98.9781 138.156 110.952 143.116 123.438 143.116C124.846 143.116 126.214 143.116 127.462 142.915V143.156C119.894 143.347 112.636 146.198 106.962 151.21C101.289 156.221 97.5627 163.072 96.4391 170.558H127.944C131.035 167.099 132.778 162.642 132.853 158.004V98.0896C132.853 96.777 132.332 95.5181 131.404 94.59C130.475 93.6618 129.217 93.1403 127.904 93.1403L128.025 93.0599Z" fill="black"/>
<path opacity="0.2" d="M124.162 93.0605H76.6024V96.0382C76.6024 108.524 81.5623 120.499 90.3909 129.328C99.2195 138.156 111.194 143.116 123.679 143.116C125.088 143.116 126.456 143.116 127.703 142.915V143.157C120.414 143.329 113.4 145.97 107.808 150.648C102.216 155.327 98.378 161.765 96.9219 168.909H124.605C125.917 168.909 127.176 168.387 128.104 167.459C129.032 166.531 129.554 165.272 129.554 163.96V98.0903C129.564 97.4336 129.444 96.7813 129.2 96.1715C128.956 95.5617 128.594 95.0066 128.133 94.5385C127.672 94.0703 127.123 93.6986 126.517 93.4448C125.912 93.1911 125.261 93.0605 124.605 93.0605H124.162Z" fill="black"/>
<path opacity="0.3" d="M122.392 90.5652C120.26 89.4331 117.884 88.8391 115.471 88.835H76.884C75.889 94.9013 76.099 101.104 77.502 107.089C78.9049 113.075 81.4733 118.725 85.0604 123.717C88.6475 128.709 93.1831 132.946 98.4079 136.184C103.633 139.423 109.445 141.601 115.511 142.593C118.169 143.047 120.863 143.249 123.558 143.196C124.927 143.196 126.295 143.196 127.582 142.995V143.237C120.743 143.366 114.124 145.671 108.683 149.817C103.242 153.962 99.2638 159.733 97.3242 166.293H124.927C126.211 166.283 127.442 165.773 128.358 164.872C129.274 163.971 129.804 162.749 129.835 161.464V95.7961C129.835 93.0599 123.156 91.4505 122.392 90.5652Z" fill="black"/>
<path opacity="0.1" d="M126.375 96.7217H76.3207C76.5004 109.089 81.5394 120.888 90.3487 129.57C99.1579 138.251 111.03 143.117 123.397 143.116C124.742 143.11 126.085 143.03 127.421 142.875V143.116C119.209 143.306 111.38 146.629 105.537 152.404C99.695 158.179 96.2817 165.97 95.9964 174.18H126.214C127.516 174.18 128.765 173.662 129.685 172.742C130.606 171.821 131.123 170.572 131.123 169.271V101.671C131.123 100.365 130.607 99.1124 129.688 98.1854C128.768 97.2584 127.52 96.7323 126.214 96.7217H126.375Z" fill="black"/>
<path opacity="0.1" d="M77.2864 86.4211C74.7093 98.6174 77.0745 111.338 83.8632 121.793C90.6518 132.248 101.31 139.583 113.499 142.191C116.687 142.867 119.937 143.205 123.196 143.197C124.564 143.197 125.932 143.197 127.22 142.995V143.237C121.35 143.351 115.622 145.068 110.658 148.203C105.693 151.338 101.681 155.771 99.0543 161.022L117.684 158.849C120.38 158.849 127.743 156.435 127.743 153.739V91.3703C127.743 90.717 127.614 90.0701 127.362 89.467C127.111 88.8639 126.743 88.3165 126.279 87.8564C125.815 87.3963 125.265 87.0325 124.66 86.7861C124.055 86.5398 123.407 86.4158 122.754 86.4211H77.2864Z" fill="black"/>
<path opacity="0.15" d="M77.0852 87.6279C75.9496 93.6864 76.019 99.9092 77.2892 105.941C78.5595 111.972 81.0059 117.695 84.4884 122.78C87.971 127.866 92.4216 132.216 97.5858 135.581C102.75 138.946 108.527 141.26 114.586 142.392C117.49 142.942 120.441 143.212 123.397 143.196C124.766 143.196 126.134 143.196 127.421 142.995V143.237C121.326 143.382 115.398 145.256 110.326 148.64C105.254 152.023 101.248 156.778 98.7727 162.35L118.006 160.056C120.702 160.056 128.065 157.682 128.065 154.986V92.6174C128.065 91.9622 127.936 91.3134 127.685 90.708C127.434 90.1027 127.067 89.5526 126.604 89.0893C126.14 88.626 125.59 88.2585 124.985 88.0077C124.38 87.757 123.731 87.6279 123.076 87.6279H77.0852Z" fill="black"/>
</g>
<path d="M55.639 88.6348H121.748C122.618 88.6347 123.479 88.8068 124.282 89.1409C125.086 89.4751 125.815 89.9648 126.428 90.5818C127.041 91.1989 127.527 91.9311 127.856 92.7363C128.185 93.5416 128.352 94.4041 128.347 95.2741V161.465C128.352 162.335 128.185 163.198 127.856 164.003C127.527 164.808 127.041 165.541 126.428 166.158C125.815 166.775 125.086 167.264 124.282 167.598C123.479 167.933 122.618 168.105 121.748 168.105H55.639C53.8782 168.105 52.1895 167.405 50.9445 166.16C49.6994 164.915 49 163.226 49 161.465V95.2741C49 93.5132 49.6994 91.8245 50.9445 90.5794C52.1895 89.3343 53.8782 88.6348 55.639 88.6348Z" fill="#03787C"/>
<path d="M79.6201 127.906C78.0023 126.873 76.6292 125.5 75.5965 123.882C74.6704 122.108 74.2002 120.13 74.2284 118.128C74.1371 115.414 75.0545 112.762 76.8035 110.684C78.6501 108.6 81.0283 107.056 83.684 106.218C86.6971 105.235 89.8495 104.745 93.0189 104.769C97.1786 104.637 101.33 105.222 105.291 106.5V115.191C103.578 114.137 101.702 113.375 99.7384 112.938C97.6192 112.41 95.4442 112.14 93.2603 112.133C90.9524 112.051 88.6594 112.534 86.5811 113.541C85.7999 113.888 85.1344 114.451 84.6637 115.164C84.193 115.877 83.9368 116.711 83.9254 117.565C83.9191 118.615 84.3234 119.626 85.052 120.382C85.9195 121.263 86.9253 121.997 88.0296 122.555C89.3171 123.158 91.2485 124.003 93.7432 125.049L94.5479 125.371C97.0288 126.32 99.4248 127.478 101.71 128.832C103.569 129.905 105.092 131.475 106.109 133.365C107.125 135.256 107.594 137.392 107.464 139.535C107.572 142.311 106.719 145.04 105.05 147.261C103.379 149.304 101.138 150.803 98.6118 151.566C95.6445 152.5 92.5486 152.962 89.4378 152.934C86.6591 152.935 83.8856 152.692 81.1491 152.21C78.7732 151.845 76.4496 151.197 74.2284 150.278V141.104C76.3302 142.581 78.6716 143.684 81.1491 144.363C83.586 145.126 86.1203 145.533 88.6734 145.571C91.0559 145.723 93.4349 145.222 95.5538 144.122C96.2634 143.717 96.8531 143.131 97.263 142.425C97.6729 141.718 97.8884 140.915 97.8875 140.098C97.8914 139.512 97.7757 138.932 97.5473 138.392C97.319 137.852 96.983 137.365 96.5597 136.96C95.564 135.957 94.4081 135.128 93.1396 134.505C91.6106 133.741 89.3573 132.735 86.4201 131.487C84.0328 130.538 81.7534 129.338 79.6201 127.906Z" fill="white"/>
</svg>

<svg xmlns="http://www.w3.org/2000/svg" width="256" height="256" fill="none"><path fill="#F4F2ED" d="M196 0H60C26.863 0 0 26.863 0 60v136c0 33.137 26.863 60 60 60h136c33.137 0 60-26.863 60-60V60c0-33.137-26.863-60-60-60"/><path fill="#036C70" d="M123.397 143.237c26.022 0 47.118-21.096 47.118-47.118S149.419 49 123.397 49 76.28 70.096 76.28 96.119c0 26.022 21.095 47.118 47.117 47.118"/><path fill="#1A9BA1" d="M167.416 177.963c22.267 0 40.317-18.051 40.317-40.318 0-22.268-18.05-40.319-40.317-40.319-22.266 0-40.317 18.051-40.317 40.319 0 22.267 18.051 40.318 40.317 40.318"/><path fill="#37C6D0" d="M128.347 207.698c17.799 0 32.229-14.43 32.229-32.23 0-17.801-14.43-32.231-32.229-32.231-17.8 0-32.23 14.43-32.23 32.231 0 17.8 14.43 32.23 32.23 32.23"/><g fill="#000" opacity=".67"><path d="M130.882 87.266H81.431a2.454 2.454 0 0 0-2.495 2.414v21.89a47.08 47.08 0 0 0 44.26 31.586c1.368 0 2.736 0 4.024-.201v.242a32.19 32.19 0 0 0-30.781 26.315h34.201c2.696 0 4.909-5.432 4.909-11.387v-65.91a4.91 4.91 0 0 0-4.667-4.949" opacity=".05"/><path d="M121.748 100.263H76.602a47.04 47.04 0 0 0 46.876 42.934c1.408 0 2.776 0 4.024-.201v.241a32.19 32.19 0 0 0-31.385 32.633c0 1.368 0 2.696.322 4.024h25.309a6.55 6.55 0 0 0 4.775-1.734 6.57 6.57 0 0 0 2.105-4.624v-66.875a6.6 6.6 0 0 0-6.719-6.398z" opacity=".1"/><path d="M121.748 95.676H76.321v.442a47.08 47.08 0 0 0 29.089 43.507 47.1 47.1 0 0 0 18.028 3.572c1.368 0 2.736 0 4.023-.201v.241a32.19 32.19 0 0 0-31.465 32.19h25.631a6.515 6.515 0 0 0 6.599-6.398v-66.955a6.52 6.52 0 0 0-6.478-6.398" opacity=".2"/><path d="M128.91 88.795H79.46a2.495 2.495 0 0 0-2.495 2.495v12.594a47.08 47.08 0 0 0 46.432 39.313c1.369 0 2.737 0 4.024-.202v.242a32.186 32.186 0 0 0-31.062 27.764h32.47c.649 0 1.29-.128 1.888-.378a4.9 4.9 0 0 0 2.659-2.68 4.9 4.9 0 0 0 .362-1.891V93.825a4.953 4.953 0 0 0-4.868-5.03z" opacity=".1"/><path d="M128.628 90.848h-49.25a2.453 2.453 0 0 0-2.454 2.454v10.06a47 47 0 0 0 46.473 39.795c1.369 0 2.737 0 4.024-.201v.241a32.19 32.19 0 0 0-31.304 29.052h32.511a4.95 4.95 0 0 0 4.949-4.949V95.837a4.987 4.987 0 0 0-4.909-4.99z" opacity=".1"/><path d="M77.648 85.013a47.04 47.04 0 0 0 45.749 58.224c1.368 0 2.736 0 4.024-.201v.241a32.19 32.19 0 0 0-27.24 16.337l17.825-2.133c2.696 0 10.059-2.374 10.059-5.11V90.002a5.07 5.07 0 0 0-4.99-4.99z" opacity=".01"/><path d="M121.748 97.889H76.321a47.077 47.077 0 0 0 47.036 45.308c1.368 0 2.736 0 4.024-.202v.242a32.19 32.19 0 0 0-31.465 32.19v2.133h25.51a6.523 6.523 0 0 0 6.76-6.277v-67.117a6.52 6.52 0 0 0-6.438-6.277" opacity=".2"/><path d="M121.748 90.888H76.602a47.04 47.04 0 0 0 41.444 52.027 48 48 0 0 0 5.392.282c1.368 0 2.736 0 4.023-.201v.241a32.19 32.19 0 0 0-30.78 25.591h24.946a6.48 6.48 0 0 0 6.06-3.887c.34-.78.523-1.619.539-2.47V97.285a6.52 6.52 0 0 0-6.478-6.397" opacity=".3"/><path d="M121.748 90.888H76.602a47.04 47.04 0 0 0 41.444 52.027 48 48 0 0 0 5.392.282c1.368 0 2.736 0 4.023-.201v.241a32.19 32.19 0 0 0-30.7 25.229h24.866a6.557 6.557 0 0 0 6.599-6.438V97.286a6.52 6.52 0 0 0-6.478-6.398" opacity=".3"/><path d="M121.748 92.497H76.602v3.42a47.08 47.08 0 0 0 13.775 33.316 47.07 47.07 0 0 0 33.302 13.803h4.024v.241a32.19 32.19 0 0 0-31.264 28.65h25.43a6.57 6.57 0 0 0 4.725-1.807 6.56 6.56 0 0 0 2.034-4.631V98.895a6.5 6.5 0 0 0-.546-2.495 6.5 6.5 0 0 0-3.617-3.465 6.5 6.5 0 0 0-2.516-.438z" opacity=".3"/><path d="M121.748 93.986H76.321v2.132a47.076 47.076 0 0 0 47.076 47.078c1.409 0 2.777 0 4.024-.201v.242a32.187 32.187 0 0 0-30.982 30.299h25.51a6.56 6.56 0 0 0 6.639-6.398v-66.755a6.53 6.53 0 0 0-1.994-4.574 6.52 6.52 0 0 0-4.645-1.823z" opacity=".2"/><path d="M128.025 93.06H78.574a2.41 2.41 0 0 0-2.213 1.368v1.61a47.08 47.08 0 0 0 47.077 47.078c1.408 0 2.776 0 4.024-.201v.241a32.19 32.19 0 0 0-31.023 27.402h31.505a19.3 19.3 0 0 0 4.909-12.554V98.09a4.95 4.95 0 0 0-4.949-4.95z" opacity=".1"/><path d="M124.162 93.06h-47.56v2.978a47.08 47.08 0 0 0 47.077 47.078c1.409 0 2.777 0 4.024-.201v.242a32.19 32.19 0 0 0-30.781 25.752h27.683a4.95 4.95 0 0 0 4.949-4.949V98.09a4.96 4.96 0 0 0-1.421-3.552 4.95 4.95 0 0 0-3.528-1.477z" opacity=".2"/><path d="M122.392 90.565a14.8 14.8 0 0 0-6.921-1.73H76.884a46.79 46.79 0 0 0 21.524 47.349 46.8 46.8 0 0 0 17.103 6.409c2.658.454 5.352.656 8.047.603 1.369 0 2.737 0 4.024-.201v.242a32.2 32.2 0 0 0-18.899 6.58 32.2 32.2 0 0 0-11.359 16.476h27.603a4.95 4.95 0 0 0 4.908-4.829V95.796c0-2.736-6.679-4.346-7.443-5.23" opacity=".3"/><path d="M126.375 96.722H76.321a47.08 47.08 0 0 0 47.076 46.394 36 36 0 0 0 4.024-.241v.241a32.19 32.19 0 0 0-31.425 31.064h30.218a4.91 4.91 0 0 0 4.909-4.909v-67.6a4.95 4.95 0 0 0-4.909-4.95z" opacity=".1"/><path d="M77.286 86.421a47.08 47.08 0 0 0 36.213 55.77 46.2 46.2 0 0 0 9.697 1.006c1.368 0 2.736 0 4.024-.202v.242a32.19 32.19 0 0 0-28.166 17.785l18.63-2.173c2.696 0 10.059-2.414 10.059-5.11V91.37a4.94 4.94 0 0 0-3.083-4.584 5 5 0 0 0-1.906-.365z" opacity=".1"/><path d="M77.085 87.628a46.92 46.92 0 0 0 20.5 47.953 46.9 46.9 0 0 0 17.001 6.811c2.904.55 5.855.82 8.811.804 1.369 0 2.737 0 4.024-.201v.242a32.19 32.19 0 0 0-28.648 19.113l19.233-2.294c2.696 0 10.059-2.374 10.059-5.07V92.617a4.985 4.985 0 0 0-3.08-4.61 5 5 0 0 0-1.909-.38z" opacity=".15"/></g><path fill="#03787C" d="M55.639 88.635h66.109a6.59 6.59 0 0 1 6.108 4.101 6.6 6.6 0 0 1 .491 2.538v66.191a6.6 6.6 0 0 1-1.919 4.693 6.6 6.6 0 0 1-2.146 1.44 6.6 6.6 0 0 1-2.534.507H55.639a6.64 6.64 0 0 1-6.639-6.64v-66.19a6.64 6.64 0 0 1 6.639-6.64"/><path fill="#fff" d="M79.62 127.906a13.2 13.2 0 0 1-4.023-4.024 12.1 12.1 0 0 1-1.369-5.754 11 11 0 0 1 2.576-7.444 15.4 15.4 0 0 1 6.88-4.466 29.4 29.4 0 0 1 9.335-1.449c4.16-.132 8.311.453 12.272 1.731v8.691a18.1 18.1 0 0 0-5.553-2.253 27.2 27.2 0 0 0-6.478-.805c-2.308-.082-4.6.401-6.679 1.408a4.47 4.47 0 0 0-2.656 4.024 4.03 4.03 0 0 0 1.127 2.817 11.4 11.4 0 0 0 2.978 2.173c1.287.603 3.219 1.448 5.713 2.494l.805.322a47 47 0 0 1 7.162 3.461 11.56 11.56 0 0 1 4.399 4.533 11.56 11.56 0 0 1 1.355 6.17 12.08 12.08 0 0 1-2.414 7.726 13.3 13.3 0 0 1-6.438 4.305 29.7 29.7 0 0 1-9.174 1.368 47.7 47.7 0 0 1-8.289-.724 30 30 0 0 1-6.92-1.932v-9.174a22.3 22.3 0 0 0 6.92 3.259 26.5 26.5 0 0 0 7.524 1.208 13.1 13.1 0 0 0 6.88-1.449 4.63 4.63 0 0 0 2.335-4.024 4.3 4.3 0 0 0-1.328-3.138 12.7 12.7 0 0 0-3.42-2.455c-1.53-.764-3.783-1.77-6.72-3.018a36.2 36.2 0 0 1-6.8-3.581"/></svg>
